build/img/pin.svg

<svg width="22" height="31" viewBox="0 0 22 31" fill="none" xmlns="http://www.w3.org/2000/svg">
<path d="M11 0C4.93457 0 0 4.93457 0 10.9999C0 18.5273 9.84392 29.5778 10.263 30.0446C10.6567 30.483 11.344 30.4822 11.737 30.0446C12.1561 29.5778 22 18.5273 22 10.9999C21.9999 4.93457 17.0654 0 11 0ZM11 27.8655C7.68701 23.9302 1.9809 16.1661 1.9809 11.0001C1.9809 6.02681 6.02681 1.9809 11 1.9809C15.9732 1.9809 20.0191 6.02681 20.0191 11C20.019 16.1663 14.3138 23.9289 11 27.8655Z" fill="url(#paint12_linear)"/>
<path d="M11.0001 5.46484C7.94847 5.46484 5.46582 7.94755 5.46582 10.9992C5.46582 14.0509 7.94853 16.5336 11.0001 16.5336C14.0518 16.5336 16.5344 14.0509 16.5344 10.9992C16.5344 7.94755 14.0518 5.46484 11.0001 5.46484ZM11.0001 14.5527C9.04072 14.5527 7.44672 12.9586 7.44672 10.9992C7.44672 9.0398 9.04078 7.44574 11.0001 7.44574C12.9595 7.44574 14.5536 9.0398 14.5536 10.9992C14.5536 12.9586 12.9595 14.5527 11.0001 14.5527Z" fill="url(#paint13_linear)"/>
<defs>
<linearGradient id="paint12_linear" x1="22" y1="-24.2986" x2="-0.076187" y2="-24.2784" gradientUnits="userSpaceOnUse">
<stop stop-color="#F59E27"/>
<stop offset="1" stop-color="#FC5829"/>
</linearGradient>
<linearGradient id="paint13_linear" x1="16.5344" y1="-3.39019" x2="5.4275" y2="-3.3762" gradientUnits="userSpaceOnUse">
<stop stop-color="#F59E27"/>
<stop offset="1" stop-color="#FC5829"/>
</linearGradient>
</defs>
</svg>

<svg width="22" height="31" fill="none" xmlns="http://www.w3.org/2000/svg"><path d="M11 0C4.935 0 0 4.935 0 11c0 7.527 9.844 18.578 10.263 19.045a.991.991 0 0 0 1.474 0C12.157 29.578 22 18.527 22 11c0-6.065-4.935-11-11-11zm0 27.866C7.687 23.93 1.98 16.166 1.98 11c0-4.973 4.047-9.02 9.02-9.02s9.02 4.047 9.02 9.02c-.001 5.166-5.706 12.929-9.02 16.866z" fill="url(#a)"/><path d="M11 5.465a5.54 5.54 0 0 0-5.534 5.534A5.54 5.54 0 0 0 11 16.534a5.54 5.54 0 0 0 5.534-5.535A5.54 5.54 0 0 0 11 5.465zm0 9.088a3.557 3.557 0 0 1-3.553-3.554A3.557 3.557 0 0 1 11 7.446a3.557 3.557 0 0 1 3.554 3.553A3.558 3.558 0 0 1 11 14.553z" fill="url(#b)"/><defs><linearGradient id="a" x1="22" y1="-24.299" x2="-.076" y2="-24.278" gradientUnits="userSpaceOnUse"><stop stop-color="#F59E27"/><stop offset="1" stop-color="#FC5829"/></linearGradient><linearGradient id="b" x1="16.534" y1="-3.39" x2="5.428" y2="-3.376" gradientUnits="userSpaceOnUse"><stop stop-color="#F59E27"/><stop offset="1" stop-color="#FC5829"/></linearGradient></defs></svg>
